; generated by PrusaSlicer 2.9.4 on 2026-05-31 at 10:40:37 UTC

; 

; external perimeters extrusion width = 0.45mm
; perimeters extrusion width = 0.45mm
; infill extrusion width = 0.45mm
; solid infill extrusion width = 0.45mm
; top infill extrusion width = 0.40mm
; first layer extrusion width = 0.70mm

M104 S200 ; set temperature
;TYPE:Custom
G28 ; home all axes
G1 Z5 F5000 ; lift nozzle
M109 S200 ; set temperature and wait for it to be reached
G21 ; set units to millimeters
G90 ; use absolute coordinates
M82 ; use absolute distances for extrusion
G92 E0
; Filament gcode
M107
;LAYER_CHANGE
;Z:0.35
;HEIGHT:0.35
G1 E-2 F2400
G92 E0
G1 Z.35 F7800
G1 X85.38 Y87.871
G1 E2 F2400
;TYPE:Skirt/Brim
;WIDTH:0.7
G1 F1800
G1 X87.121 Y86.465 E2.20349
G1 X90.155 Y85.688 E2.48827
G1 X110.155 Y85.688 E4.30686
G1 X112.358 Y86.084 E4.51039
G1 X114.284 Y87.225 E4.71395
G1 X115.69 Y88.966 E4.91744
G1 X116.467 Y92 E5.20222
G1 X116.467 Y112 E7.02081
G1 X116.071 Y114.203 E7.22434
G1 X114.93 Y116.129 E7.4279
G1 X113.189 Y117.535 E7.63139
G1 X110.155 Y118.312 E7.91617
G1 X90.155 Y118.312 E9.73476
G1 X87.952 Y117.916 E9.93829
G1 X86.026 Y116.775 E10.14185
G1 X84.619 Y115.034 E10.34539
G1 X83.843 Y112 E10.63015
G1 X83.843 Y92 E12.44874
G1 X84.239 Y89.797 E12.65227
G1 X85.349 Y87.923 E12.85032
G1 E10.85032 F2400
G92 E0
G92 E0
G1 X108.555 Y93.6 F7800
G1 E2 F2400
;TYPE:Perimeter
;WIDTH:0.7
G1 F1800
G1 X108.555 Y110.4 E3.52762
G1 X91.755 Y110.4 E5.05524
G1 X91.755 Y93.6 E6.58286
G1 X108.495 Y93.6 E8.10502
G1 X109.18 Y92.975 F7800
G1 F1800
G1 X109.18 Y111.025 E9.7463
G1 X91.13 Y111.025 E11.38758
G1 X91.13 Y92.975 E13.02886
G1 X109.12 Y92.975 E14.66468
G1 X109.805 Y92.35 F7800
;TYPE:External perimeter
G1 F1800
G1 X109.805 Y111.65 E16.41962
G1 X90.505 Y111.65 E18.17456
G1 X90.505 Y92.35 E19.9295
G1 X109.745 Y92.35 E21.67898
G1 X109.804 Y92.746 F7800
G1 E19.67898 F2400
G92 E0
G1 X108.368 Y95.062 F7800
G1 E2 F2400
;TYPE:Solid infill
;WIDTH:0.705315
G1 F1800
G1 X107.374 Y94.068 E2.12891
G1 X106.483 Y94.068 E2.21062
G1 X108.087 Y95.672 E2.41864
G1 X108.087 Y96.563 E2.50035
G1 X105.592 Y94.068 E2.82392
G1 X104.701 Y94.068 E2.90563
G1 X108.087 Y97.454 E3.34475
G1 X108.087 Y98.345 E3.42646
G1 X103.809 Y94.068 E3.9812
G1 X102.918 Y94.068 E4.06291
G1 X108.087 Y99.237 E4.73326
G1 X108.087 Y100.128 E4.81497
G1 X102.027 Y94.068 E5.60088
G1 X101.136 Y94.068 E5.68259
G1 X108.087 Y101.019 E6.58405
G1 X108.087 Y101.91 E6.66576
G1 X100.245 Y94.068 E7.68277
G1 X99.353 Y94.068 E7.76457
G1 X108.087 Y102.802 E8.89726
G1 X108.087 Y103.693 E8.97897
G1 X98.462 Y94.068 E10.22721
G1 X97.571 Y94.068 E10.30892
G1 X108.087 Y104.584 E11.67271
G1 X108.087 Y105.475 E11.75442
G1 X96.68 Y94.068 E13.23377
G1 X95.788 Y94.068 E13.31557
G1 X108.087 Y106.367 E14.9106
G1 X108.087 Y107.258 E14.99231
G1 X94.897 Y94.068 E16.70289
G1 X94.006 Y94.068 E16.7846
G1 X108.087 Y108.149 E18.61073
G1 X108.087 Y109.04 E18.69244
G1 X93.115 Y94.068 E20.63412
G1 X92.223 Y94.068 E20.71592
G1 X108.086 Y109.932 E22.77322
G1 X107.195 Y109.932 E22.85493
G1 X92.223 Y94.96 E24.79661
G1 X92.223 Y95.851 E24.87832
G1 X106.304 Y109.932 E26.70445
G1 X105.413 Y109.932 E26.78616
G1 X92.223 Y96.742 E28.49674
G1 X92.223 Y97.633 E28.57845
G1 X104.521 Y109.932 E30.17341
G1 X103.63 Y109.932 E30.25512
G1 X92.223 Y98.525 E31.73447
G1 X92.223 Y99.416 E31.81618
G1 X102.739 Y109.932 E33.17997
G1 X101.848 Y109.932 E33.26168
G1 X92.223 Y100.307 E34.50992
G1 X92.223 Y101.198 E34.59163
G1 X100.957 Y109.932 E35.72432
G1 X100.065 Y109.932 E35.80612
G1 X92.223 Y102.09 E36.82313
G1 X92.223 Y102.981 E36.90484
G1 X99.174 Y109.932 E37.8063
G1 X98.283 Y109.932 E37.88801
G1 X92.223 Y103.872 E38.67392
G1 X92.223 Y104.763 E38.75563
G1 X97.392 Y109.932 E39.42598
G1 X96.5 Y109.932 E39.50778
G1 X92.223 Y105.655 E40.06245
G1 X92.223 Y106.546 E40.14416
G1 X95.609 Y109.932 E40.58328
G1 X94.718 Y109.932 E40.66499
G1 X92.223 Y107.437 E40.98856
G1 X92.223 Y108.328 E41.07027
G1 X93.827 Y109.932 E41.27829
G1 X92.935 Y109.932 E41.36009
G1 X91.942 Y108.938 E41.48893
;LAYER_CHANGE
;Z:0.65
;HEIGHT:0.3
G1 E39.48893 F2400
G92 E0
G1 Z.65 F7800
G1 X109.159 Y92.996
G1 E2 F2400
;TYPE:Perimeter
;WIDTH:0.45
G1 F3600
G1 X109.159 Y111.004 E2.86612
G1 X91.151 Y111.004 E3.73224
G1 X91.151 Y92.996 E4.59836
G1 X109.099 Y92.996 E5.4616
G1 X109.544 Y92.611 F7800
G1 F3600
G1 X109.544 Y111.389 E6.36476
G1 X90.766 Y111.389 E7.26792
G1 X90.766 Y92.611 E8.17108
G1 X109.484 Y92.611 E9.07135
G1 X109.93 Y92.225 F7800
;TYPE:External perimeter
G1 F1800
G1 X109.93 Y111.775 E10.01164
G1 X90.38 Y111.775 E10.95193
G1 X90.38 Y92.225 E11.89222
G1 X109.87 Y92.225 E12.82962
G1 X109.929 Y92.621 F7800
G1 E10.82962 F2400
G92 E0
G1 X91.545 Y93.317 F7800
G1 E2 F2400
;TYPE:Solid infill
;WIDTH:0.543559
G1 F1200
G1 X91.503 Y93.274 E2.00359
G1 X91.445 Y93.29 E2.00719
G1 X91.429 Y93.348 E2.01079
G1 X91.472 Y93.39 E2.01438
G1 X91.53 Y93.375 E2.01796
;WIDTH:0.45
G1 X91.44 Y93.991 E2.0479
G1 X92.145 Y93.285 E2.09589
G1 X92.691 Y93.285 E2.12215
G1 X91.44 Y94.536 E2.20724
G1 X91.44 Y95.081 E2.23345
G1 X93.236 Y93.285 E2.35561
G1 X93.782 Y93.285 E2.38187
G1 X91.44 Y95.627 E2.54117
G1 X91.44 Y96.172 E2.56738
G1 X94.327 Y93.285 E2.76375
G1 X94.872 Y93.285 E2.78996
G1 X91.44 Y96.717 E3.0234
G1 X91.44 Y97.263 E3.04966
G1 X95.418 Y93.285 E3.32024
G1 X95.963 Y93.285 E3.34645
G1 X91.44 Y97.808 E3.6541
G1 X91.44 Y98.353 E3.68031
G1 X96.508 Y93.285 E4.02503
G1 X97.054 Y93.285 E4.05129
G1 X91.44 Y98.899 E4.43315
G1 X91.44 Y99.444 E4.45936
G1 X97.599 Y93.285 E4.87829
G1 X98.144 Y93.285 E4.9045
G1 X91.44 Y99.989 E5.3605
G1 X91.44 Y100.535 E5.38676
G1 X98.69 Y93.285 E5.8799
G1 X99.235 Y93.285 E5.90611
G1 X91.44 Y101.08 E6.43632
G1 X91.44 Y101.625 E6.46253
G1 X99.78 Y93.285 E7.02981
G1 X100.326 Y93.285 E7.05607
G1 X91.44 Y102.171 E7.66048
G1 X91.44 Y102.716 E7.68669
G1 X100.871 Y93.285 E8.32817
G1 X101.416 Y93.285 E8.35438
G1 X91.44 Y103.261 E9.03294
G1 X91.44 Y103.807 E9.0592
G1 X101.962 Y93.285 E9.77489
G1 X102.507 Y93.285 E9.8011
G1 X91.44 Y104.352 E10.55386
G1 X91.44 Y104.897 E10.58007
G1 X103.052 Y93.285 E11.3699
G1 X103.598 Y93.285 E11.39616
G1 X91.44 Y105.443 E12.22313
G1 X91.44 Y105.988 E12.24934
G1 X104.143 Y93.285 E13.11338
G1 X104.688 Y93.285 E13.13959
G1 X91.44 Y106.534 E14.04074
G1 X91.44 Y107.079 E14.06695
G1 X105.234 Y93.285 E15.0052
G1 X105.779 Y93.285 E15.03141
G1 X91.44 Y107.624 E16.00673
G1 X91.44 Y108.17 E16.03299
G1 X106.325 Y93.285 E17.04545
G1 X106.87 Y93.285 E17.07166
G1 X91.44 Y108.715 E18.12119
G1 X91.44 Y109.26 E18.1474
G1 X107.415 Y93.285 E19.234
G1 X107.961 Y93.285 E19.26026
G1 X91.44 Y109.806 E20.384
G1 X91.44 Y110.351 E20.41021
G1 X108.506 Y93.285 E21.57102
G1 X109.002 Y93.183 E21.59538
;WIDTH:0.404381
G1 X108.93 Y93.164 E21.59854
G1 X108.95 Y93.235 E21.60167
G1 X108.991 Y93.224 E21.60347
;WIDTH:0.45
G1 X108.87 Y93.467 E21.61653
G1 X91.622 Y110.715 E22.78972
G1 X91.379 Y110.836 E22.80278
;WIDTH:0.404381
G1 X91.338 Y110.847 E22.80458
G1 X91.319 Y110.776 E22.8077
G1 X91.39 Y110.795 E22.81082
G1 X92.168 Y110.715 F7800
;WIDTH:0.45
G1 F1200
G1 X108.87 Y94.013 E23.94687
G1 X108.87 Y94.558 E23.97308
G1 X92.713 Y110.715 E25.07206
G1 X93.258 Y110.715 E25.09827
G1 X108.87 Y95.103 E26.16018
G1 X108.87 Y95.649 E26.18644
G1 X93.804 Y110.715 E27.21121
G1 X94.349 Y110.715 E27.23742
G1 X108.87 Y96.194 E28.22512
G1 X108.87 Y96.739 E28.25133
G1 X94.894 Y110.715 E29.20196
G1 X95.44 Y110.715 E29.22822
G1 X108.87 Y97.285 E30.14171
G1 X108.87 Y97.83 E30.16792
G1 X95.985 Y110.715 E31.04434
G1 X96.53 Y110.715 E31.07055
G1 X108.87 Y98.375 E31.9099
G1 X108.87 Y98.921 E31.93616
G1 X97.076 Y110.715 E32.73837
G1 X97.621 Y110.715 E32.76458
G1 X108.87 Y99.466 E33.52972
G1 X108.87 Y100.011 E33.55593
G1 X98.166 Y110.715 E34.284
G1 X98.712 Y110.715 E34.31026
G1 X108.87 Y100.557 E35.00119
G1 X108.87 Y101.102 E35.0274
G1 X99.257 Y110.715 E35.68126
G1 X99.802 Y110.715 E35.70747
G1 X108.87 Y101.647 E36.32426
G1 X108.87 Y102.193 E36.35052
G1 X100.348 Y110.715 E36.93018
G1 X100.893 Y110.715 E36.95639
G1 X108.87 Y102.738 E37.49898
G1 X108.87 Y103.283 E37.52519
G1 X101.438 Y110.715 E38.03071
G1 X101.984 Y110.715 E38.05697
G1 X108.87 Y103.829 E38.52535
G1 X108.87 Y104.374 E38.55156
G1 X102.529 Y110.715 E38.98287
G1 X103.074 Y110.715 E39.00908
G1 X108.87 Y104.92 E39.40328
G1 X108.87 Y105.465 E39.42949
G1 X103.62 Y110.715 E39.78659
G1 X104.165 Y110.715 E39.8128
G1 X108.87 Y106.01 E40.13283
G1 X108.87 Y106.556 E40.15909
G1 X104.711 Y110.715 E40.44198
G1 X105.256 Y110.715 E40.46819
G1 X108.87 Y107.101 E40.71401
G1 X108.87 Y107.646 E40.74022
G1 X105.801 Y110.715 E40.94897
G1 X106.347 Y110.715 E40.97523
G1 X108.87 Y108.192 E41.14684
G1 X109.075 Y108.578 E41.16786
;WIDTH:0.404381
G1 X109.004 Y108.559 E41.17098
G1 X109.023 Y108.63 E41.1741
G1 X109.064 Y108.619 E41.1759
;WIDTH:0.45
G1 X108.87 Y108.737 E41.18682
G1 X106.892 Y110.715 E41.32136
G1 X106.774 Y110.909 E41.33228
;WIDTH:0.404381
G1 X106.733 Y110.92 E41.33408
G1 X106.714 Y110.849 E41.3372
G1 X106.785 Y110.868 E41.34032
G1 E39.34032 F2400
G92 E0
G1 X108.733 Y109.419 F7800
G1 E2 F2400
;WIDTH:0.45
G1 F1200
G1 X107.437 Y110.715 E2.08815
G1 X108.87 Y110.715 E2.15707
G1 X108.87 Y109.282 E2.22599
G1 X108.505 Y110.28 F7800
;WIDTH:0.517749
G1 F1200
G1 X108.465 Y110.24 E2.22919
G1 X108.41 Y110.255 E2.23241
G1 X108.395 Y110.31 E2.23563
G1 X108.435 Y110.35 E2.23883
G1 X108.49 Y110.335 E2.24205
;LAYER_CHANGE
;Z:0.95
;HEIGHT:0.3
G1 E.24205 F2400
G92 E0
G1 Z.95 F7800
G1 X109.159 Y92.996
G1 E2 F2400
;TYPE:Perimeter
;WIDTH:0.45
G1 F3600
G1 X109.159 Y111.004 E2.86612
G1 X91.151 Y111.004 E3.73224
G1 X91.151 Y92.996 E4.59836
G1 X109.099 Y92.996 E5.4616
G1 X109.544 Y92.611 F7800
G1 F3600
G1 X109.544 Y111.389 E6.36476
G1 X90.766 Y111.389 E7.26792
G1 X90.766 Y92.611 E8.17108
G1 X109.484 Y92.611 E9.07135
G1 X109.93 Y92.225 F7800
;TYPE:External perimeter
G1 F1800
G1 X109.93 Y111.775 E10.01164
G1 X90.38 Y111.775 E10.95193
G1 X90.38 Y92.225 E11.89222
G1 X109.87 Y92.225 E12.82962
G1 X109.929 Y92.621 F7800
G1 E10.82962 F2400
G92 E0
G1 X91.472 Y110.61 F7800
G1 E2 F2400
;TYPE:Solid infill
;WIDTH:0.543559
G1 F1200
G1 X91.429 Y110.652 E2.00359
G1 X91.445 Y110.71 E2.00719
G1 X91.503 Y110.726 E2.01079
G1 X91.545 Y110.683 E2.01438
G1 X91.53 Y110.625 E2.01796
;WIDTH:0.45
G1 X91.44 Y110.009 E2.0479
G1 X92.145 Y110.715 E2.09589
G1 X92.691 Y110.715 E2.12215
G1 X91.44 Y109.464 E2.20724
G1 X91.44 Y108.919 E2.23345
G1 X93.236 Y110.715 E2.35561
G1 X93.782 Y110.715 E2.38187
G1 X91.44 Y108.373 E2.54117
G1 X91.44 Y107.828 E2.56738
G1 X94.327 Y110.715 E2.76375
G1 X94.872 Y110.715 E2.78996
G1 X91.44 Y107.283 E3.0234
G1 X91.44 Y106.737 E3.04966
G1 X95.418 Y110.715 E3.32024
G1 X95.963 Y110.715 E3.34645
G1 X91.44 Y106.192 E3.6541
G1 X91.44 Y105.647 E3.68031
G1 X96.508 Y110.715 E4.02503
G1 X97.054 Y110.715 E4.05129
G1 X91.44 Y105.101 E4.43315
G1 X91.44 Y104.556 E4.45936
G1 X97.599 Y110.715 E4.87829
G1 X98.144 Y110.715 E4.9045
G1 X91.44 Y104.011 E5.3605
G1 X91.44 Y103.465 E5.38676
G1 X98.69 Y110.715 E5.8799
G1 X99.235 Y110.715 E5.90611
G1 X91.44 Y102.92 E6.43632
G1 X91.44 Y102.375 E6.46253
G1 X99.78 Y110.715 E7.02981
G1 X100.326 Y110.715 E7.05607
G1 X91.44 Y101.829 E7.66048
G1 X91.44 Y101.284 E7.68669
G1 X100.871 Y110.715 E8.32817
G1 X101.416 Y110.715 E8.35438
G1 X91.44 Y100.739 E9.03294
G1 X91.44 Y100.193 E9.0592
G1 X101.962 Y110.715 E9.77489
G1 X102.507 Y110.715 E9.8011
G1 X91.44 Y99.648 E10.55386
G1 X91.44 Y99.103 E10.58007
G1 X103.052 Y110.715 E11.3699
G1 X103.598 Y110.715 E11.39616
G1 X91.44 Y98.557 E12.22313
G1 X91.44 Y98.012 E12.24934
G1 X104.143 Y110.715 E13.11338
G1 X104.688 Y110.715 E13.13959
G1 X91.44 Y97.466 E14.04074
G1 X91.44 Y96.921 E14.06695
G1 X105.234 Y110.715 E15.0052
G1 X105.779 Y110.715 E15.03141
G1 X91.44 Y96.376 E16.00673
G1 X91.44 Y95.83 E16.03299
G1 X106.325 Y110.715 E17.04545
G1 X106.87 Y110.715 E17.07166
G1 X91.44 Y95.285 E18.12119
G1 X91.44 Y94.74 E18.1474
G1 X107.415 Y110.715 E19.234
G1 X107.961 Y110.715 E19.26026
G1 X91.44 Y94.194 E20.384
G1 X91.44 Y93.649 E20.41021
G1 X108.506 Y110.715 E21.57102
G1 X108.95 Y110.765 E21.59251
;WIDTH:0.404381
G1 X108.93 Y110.836 E21.59564
G1 X109.002 Y110.817 E21.5988
G1 X108.991 Y110.776 E21.6006
;WIDTH:0.45
G1 X108.87 Y110.533 E21.61366
G1 X91.622 Y93.285 E22.78685
G1 X91.379 Y93.164 E22.79991
;WIDTH:0.404381
G1 X91.39 Y93.205 E22.80171
G1 X91.319 Y93.224 E22.80483
G1 X91.338 Y93.153 E22.80795
G1 X92.168 Y93.285 F7800
;WIDTH:0.45
G1 F1200
G1 X108.87 Y109.987 E23.944
G1 X108.87 Y109.442 E23.97021
G1 X92.713 Y93.285 E25.06919
G1 X93.258 Y93.285 E25.0954
G1 X108.87 Y108.897 E26.15731
G1 X108.87 Y108.351 E26.18357
G1 X93.804 Y93.285 E27.20834
G1 X94.349 Y93.285 E27.23455
G1 X108.87 Y107.806 E28.22225
G1 X108.87 Y107.261 E28.24846
G1 X94.894 Y93.285 E29.19909
G1 X95.44 Y93.285 E29.22535
G1 X108.87 Y106.715 E30.13884
G1 X108.87 Y106.17 E30.16505
G1 X95.985 Y93.285 E31.04147
G1 X96.53 Y93.285 E31.06768
G1 X108.87 Y105.625 E31.90703
G1 X108.87 Y105.079 E31.93329
G1 X97.076 Y93.285 E32.7355
G1 X97.621 Y93.285 E32.76171
G1 X108.87 Y104.534 E33.52685
G1 X108.87 Y103.989 E33.55306
G1 X98.166 Y93.285 E34.28113
G1 X98.712 Y93.285 E34.30739
G1 X108.87 Y103.443 E34.99832
G1 X108.87 Y102.898 E35.02453
G1 X99.257 Y93.285 E35.67839
G1 X99.802 Y93.285 E35.7046
G1 X108.87 Y102.353 E36.32139
G1 X108.87 Y101.807 E36.34765
G1 X100.348 Y93.285 E36.92731
G1 X100.893 Y93.285 E36.95352
G1 X108.87 Y101.262 E37.49611
G1 X108.87 Y100.717 E37.52232
G1 X101.438 Y93.285 E38.02784
G1 X101.984 Y93.285 E38.0541
G1 X108.87 Y100.171 E38.52248
G1 X108.87 Y99.626 E38.54869
G1 X102.529 Y93.285 E38.98
G1 X103.074 Y93.285 E39.00621
G1 X108.87 Y99.08 E39.40041
G1 X108.87 Y98.535 E39.42662
G1 X103.62 Y93.285 E39.78372
G1 X104.165 Y93.285 E39.80993
G1 X108.87 Y97.99 E40.12996
G1 X108.87 Y97.444 E40.15622
G1 X104.711 Y93.285 E40.43911
G1 X105.256 Y93.285 E40.46532
G1 X108.87 Y96.899 E40.71114
G1 X108.87 Y96.354 E40.73735
G1 X105.801 Y93.285 E40.9461
G1 X106.347 Y93.285 E40.97236
G1 X108.87 Y95.808 E41.14397
G1 X109.023 Y95.37 E41.16628
;WIDTH:0.404381
G1 X109.004 Y95.441 E41.1694
G1 X109.075 Y95.422 E41.17252
G1 X109.064 Y95.381 E41.17432
;WIDTH:0.45
G1 X108.87 Y95.263 E41.18524
G1 X106.892 Y93.285 E41.31978
G1 X106.774 Y93.091 E41.3307
;WIDTH:0.404381
G1 X106.785 Y93.132 E41.3325
G1 X106.714 Y93.151 E41.33562
G1 X106.733 Y93.08 E41.33874
;WIDTH:0.45
G1 X107.437 Y93.285 E41.37401
G1 X108.87 Y93.285 E41.44293
G1 X108.87 Y94.718 E41.51185
G1 X107.574 Y93.422 E41.6
G1 X108.435 Y93.65 F7800
;WIDTH:0.517749
G1 F1200
G1 X108.395 Y93.69 E41.6032
G1 X108.41 Y93.745 E41.60642
G1 X108.465 Y93.76 E41.60964
G1 X108.505 Y93.72 E41.61284
G1 X108.49 Y93.665 E41.61606
M106 S244.8
;LAYER_CHANGE
;Z:1.25
;HEIGHT:0.3
G1 Z1.25 F7800
G1 X109.159 Y92.996
;TYPE:Perimeter
;WIDTH:0.45
G1 F3600
G1 X109.159 Y111.004 E42.48218
G1 X91.151 Y111.004 E43.3483
G1 X91.151 Y92.996 E44.21442
G1 X109.099 Y92.996 E45.07766
G1 X109.544 Y92.611 F7800
G1 F3600
G1 X109.544 Y111.389 E45.98082
G1 X90.766 Y111.389 E46.88398
G1 X90.766 Y92.611 E47.78714
G1 X109.484 Y92.611 E48.68741
G1 X109.93 Y92.225 F7800
;TYPE:External perimeter
G1 F1800
G1 X109.93 Y111.775 E49.6277
G1 X90.38 Y111.775 E50.56799
G1 X90.38 Y92.225 E51.50828
G1 X109.87 Y92.225 E52.44568
G1 X109.929 Y92.621 F7800
G1 E50.44568 F2400
G92 E0
G1 X104.804 Y93.285 F7800
G1 E2 F2400
;TYPE:Internal infill
;WIDTH:0.45
G1 F4800
G1 X102.49 Y93.285 E2.1113
G1 X97.82 Y110.715 E2.97919
G1 X95.506 Y110.715 E3.09049
G1 E1.09049 F2400
G92 E0
G1 X106.122 Y110.715 F7800
G1 E2 F2400
G1 F4800
G1 X103.808 Y110.715 E2.1113
G1 X108.478 Y93.285 E2.97919
G1 X107.801 Y93.285 E3.01175
G1 X108.87 Y94.354 E3.08446
G1 X108.87 Y96.671 E3.1959
G1 X91.44 Y101.341 E4.06379
G1 X91.44 Y101.466 E4.0698
G1 X100.689 Y110.715 E4.69891
G1 X101.155 Y110.715 E4.72132
G1 X108.87 Y108.647 E5.10548
G1 X108.87 Y110.715 E5.20494
G1 X91.44 Y93.285 E6.39051
G1 X91.44 Y95.353 E6.48997
G1 X99.155 Y93.285 E6.87413
G1 X99.621 Y93.285 E6.89654
G1 X108.87 Y102.534 E7.52565
G1 X108.87 Y102.659 E7.53166
G1 X91.44 Y107.329 E8.39955
G1 X91.44 Y109.646 E8.51099
G1 X92.509 Y110.715 E8.5837
G1 X91.832 Y110.715 E8.61626
