; generated by PrusaSlicer 2.1.0+win64 on 2020-01-26 at 04:43:17 UTC

; 

; external perimeters extrusion width = 0.42mm
; perimeters extrusion width = 0.42mm
; infill extrusion width = 0.50mm
; solid infill extrusion width = 0.42mm
; top infill extrusion width = 0.42mm
; first layer extrusion width = 0.42mm

M201 X4000 Y4000 Z300 E180 ; sets maximum accelerations, mm/sec^2
M203 X500 Y500 Z12 E120 ; sets maximum feedrates, mm/sec
M204 P1500 R1200 T1500 ; sets acceleration (P, T) and retract acceleration (R), mm/sec^2
M205 X8.00 Y8.00 Z0.40 E0.33 ; sets the jerk limits, mm/sec
M205 S0 T0 ; sets the minimum extruding and travel feed rate, mm/sec
M107
M83  ; extruder relative mode
M140 S75 ; set bed temp
M109 S160 ; Set extruder temp before bed level
M190 S75 ; wait for bed temp


G28 W ; home all without mesh bed level
G80 ; mesh bed leveling set 3x3, 5x5, or 7x7 in settings menu

G1 Y-3.0 Z0.6 F1000.0 ; go outside print area

M109 S255 ; wait for extruder temp

G92 E0.0
G1 Z0.2 E8 ; Purge Bubble
G1 X60.0 E9.0  F1000.0 ; intro line
G1 X100.0 E12.5  F1000.0 ; intro line
G92 E0.0
G21 ; set units to millimeters
G90 ; use absolute coordinates
M83 ; use relative distances for extrusion
M900 K0.04 ; Linear Advance 1.5 replaces K30 for K0.04
;BEFORE_LAYER_CHANGE





G1 E-0.40000 F1800.00000
G1 Z0.200 F7200.000
;AFTER_LAYER_CHANGE

G1 X116.341 Y96.341
G1 E0.40000 F1800.00000
M204 S1000
G1 F900
G1 X133.659 Y96.341 E0.49954
G1 X133.659 Y113.659 E0.49954
G1 X116.341 Y113.659 E0.49954
G1 X116.341 Y96.401 E0.49781
G1 X115.964 Y95.964 F7200.000
G1 F900
G1 X134.036 Y95.964 E0.52130
G1 X134.036 Y114.036 E0.52130
G1 X115.964 Y114.036 E0.52130
G1 X115.964 Y96.024 E0.51956
G1 X115.587 Y95.587 F7200.000
G1 F900
G1 X134.413 Y95.587 E0.54305
G1 X134.413 Y114.413 E0.54305
G1 X115.587 Y114.413 E0.54305
G1 X115.587 Y95.647 E0.54132
G1 X115.210 Y95.210 F7200.000
G1 F900
G1 X134.790 Y95.210 E0.56480
G1 X134.790 Y114.790 E0.56480
G1 X115.210 Y114.790 E0.56480
G1 X115.210 Y95.270 E0.56307
G1 X115.596 Y95.314 F7200.000
G1 E-0.04000 F1800.00000
G1 F5760
G1 X116.362 Y95.266 E-0.34200
G1 E-0.01800 F1800.00000
G1 X117.220 Y113.546 F7200.000
G1 E0.40000 F1800.00000
G1 F900
G1 X116.624 Y112.950 E0.02439
G1 X116.624 Y112.415 E0.01550
G1 X117.585 Y113.376 E0.03936
G1 X118.120 Y113.376 E0.01550
G1 X116.624 Y111.880 E0.06127
G1 X116.624 Y111.344 E0.01550
G1 X118.656 Y113.376 E0.08319
G1 X119.191 Y113.376 E0.01550
G1 X116.624 Y110.809 E0.10511
G1 X116.624 Y110.274 E0.01550
G1 X119.726 Y113.376 E0.12703
G1 X120.262 Y113.376 E0.01550
G1 X116.624 Y109.738 E0.14895
G1 X116.624 Y109.203 E0.01550
G1 X120.797 Y113.376 E0.17087
G1 X121.332 Y113.376 E0.01550
G1 X116.624 Y108.668 E0.19279
G1 X116.624 Y108.133 E0.01550
G1 X121.867 Y113.376 E0.21471
G1 X122.403 Y113.376 E0.01550
G1 X116.624 Y107.597 E0.23662
G1 X116.624 Y107.062 E0.01550
G1 X122.938 Y113.376 E0.25854
G1 X123.473 Y113.376 E0.01550
G1 X116.624 Y106.527 E0.28046
G1 X116.624 Y105.991 E0.01550
G1 X124.009 Y113.376 E0.30238
G1 X124.544 Y113.376 E0.01550
G1 X116.624 Y105.456 E0.32430
G1 X116.624 Y104.921 E0.01550
G1 X125.079 Y113.376 E0.34622
G1 X125.614 Y113.376 E0.01550
G1 X116.624 Y104.386 E0.36814
G1 X116.624 Y103.850 E0.01550
G1 X126.150 Y113.376 E0.39006
G1 X126.685 Y113.376 E0.01550
G1 X116.624 Y103.315 E0.41197
G1 X116.624 Y102.780 E0.01550
G1 X127.220 Y113.376 E0.43389
G1 X127.755 Y113.376 E0.01550
G1 X116.624 Y102.245 E0.45581
G1 X116.624 Y101.709 E0.01550
G1 X128.291 Y113.376 E0.47773
G1 X128.826 Y113.376 E0.01550
G1 X116.624 Y101.174 E0.49965
G1 X116.624 Y100.639 E0.01550
G1 X129.361 Y113.376 E0.52157
G1 X129.897 Y113.376 E0.01550
G1 X116.624 Y100.103 E0.54349
G1 X116.624 Y99.568 E0.01550
G1 X130.432 Y113.376 E0.56541
G1 X130.967 Y113.376 E0.01550
G1 X116.624 Y99.033 E0.58732
G1 X116.624 Y98.498 E0.01550
G1 X131.502 Y113.376 E0.60924
G1 X132.038 Y113.376 E0.01550
G1 X116.624 Y97.962 E0.63116
G1 X116.624 Y97.427 E0.01550
G1 X132.573 Y113.376 E0.65308
G1 X133.108 Y113.376 E0.01550
G1 X116.624 Y96.892 E0.67500
G1 X116.624 Y96.624 E0.00775
G1 X116.892 Y96.624 E0.00775
G1 X133.376 Y113.108 E0.67500
G1 X133.376 Y112.573 E0.01550
G1 X117.427 Y96.624 E0.65308
G1 X117.962 Y96.624 E0.01550
G1 X133.376 Y112.038 E0.63117
G1 X133.376 Y111.503 E0.01550
G1 X118.497 Y96.624 E0.60925
G1 X119.033 Y96.624 E0.01550
G1 X133.376 Y110.967 E0.58733
G1 X133.376 Y110.432 E0.01550
G1 X119.568 Y96.624 E0.56541
G1 X120.103 Y96.624 E0.01550
G1 X133.376 Y109.897 E0.54349
G1 X133.376 Y109.361 E0.01550
G1 X120.639 Y96.624 E0.52157
G1 X121.174 Y96.624 E0.01550
G1 X133.376 Y108.826 E0.49965
G1 X133.376 Y108.291 E0.01550
G1 X121.709 Y96.624 E0.47773
G1 X122.244 Y96.624 E0.01550
G1 X133.376 Y107.756 E0.45582
G1 X133.376 Y107.220 E0.01550
G1 X122.780 Y96.624 E0.43390
G1 X123.315 Y96.624 E0.01550
G1 X133.376 Y106.685 E0.41198
G1 X133.376 Y106.150 E0.01550
G1 X123.850 Y96.624 E0.39006
G1 X124.386 Y96.624 E0.01550
G1 X133.376 Y105.614 E0.36814
G1 X133.376 Y105.079 E0.01550
G1 X124.921 Y96.624 E0.34622
G1 X125.456 Y96.624 E0.01550
G1 X133.376 Y104.544 E0.32430
G1 X133.376 Y104.009 E0.01550
G1 X125.991 Y96.624 E0.30238
G1 X126.527 Y96.624 E0.01550
G1 X133.376 Y103.473 E0.28047
G1 X133.376 Y102.938 E0.01550
G1 X127.062 Y96.624 E0.25855
G1 X127.597 Y96.624 E0.01550
G1 X133.376 Y102.403 E0.23663
G1 X133.376 Y101.867 E0.01550
G1 X128.133 Y96.624 E0.21471
G1 X128.668 Y96.624 E0.01550
G1 X133.376 Y101.332 E0.19279
G1 X133.376 Y100.797 E0.01550
G1 X129.203 Y96.624 E0.17087
G1 X129.738 Y96.624 E0.01550
G1 X133.376 Y100.262 E0.14895
G1 X133.376 Y99.726 E0.01550
G1 X130.274 Y96.624 E0.12703
G1 X130.809 Y96.624 E0.01550
G1 X133.376 Y99.191 E0.10512
G1 X133.376 Y98.656 E0.01550
G1 X131.344 Y96.624 E0.08320
G1 X131.879 Y96.624 E0.01550
G1 X133.376 Y98.121 E0.06128
G1 X133.376 Y97.585 E0.01550
G1 X132.415 Y96.624 E0.03936
G1 X132.950 Y96.624 E0.01550
G1 X133.546 Y97.220 E0.02439
;BEFORE_LAYER_CHANGE





G1 E-0.04000 F1800.00000
G1 F5760
G1 X132.950 Y96.624 E-0.25006
G1 X132.640 Y96.624 E-0.09194
G1 E-0.01800 F1800.00000
G1 Z0.400 F7200.000
;AFTER_LAYER_CHANGE

M104 S260 ; set temperature
G1 X116.341 Y96.341
G1 E0.40000 F1800.00000
M204 S600
G1 F3343
G1 X133.659 Y96.341 E0.49954
G1 X133.659 Y113.659 E0.49954
G1 X116.341 Y113.659 E0.49954
G1 X116.341 Y96.401 E0.49781
M204 S1000
G1 X115.964 Y95.964 F7200.000
M204 S600
G1 F3343
G1 X134.036 Y95.964 E0.52130
G1 X134.036 Y114.036 E0.52130
G1 X115.964 Y114.036 E0.52130
G1 X115.964 Y96.024 E0.51956
M204 S1000
G1 X115.587 Y95.587 F7200.000
M204 S600
G1 F3343
G1 X134.413 Y95.587 E0.54305
G1 X134.413 Y114.413 E0.54305
G1 X115.587 Y114.413 E0.54305
G1 X115.587 Y95.647 E0.54132
M204 S1000
G1 X115.210 Y95.210 F7200.000
M204 S600
G1 F2400
G1 X134.790 Y95.210 E0.56480
G1 X134.790 Y114.790 E0.56480
G1 X115.210 Y114.790 E0.56480
G1 X115.210 Y95.270 E0.56307
M204 S1000
G1 X115.596 Y95.314 F7200.000
G1 E-0.04000 F1800.00000
G1 F5760
G1 X116.362 Y95.266 E-0.34200
G1 E-0.01800 F1800.00000
G1 X116.454 Y97.220 F7200.000
G1 E0.40000 F1800.00000
G1 F3343
G1 X117.050 Y96.624 E0.02438
G1 X117.585 Y96.624 E0.01550
G1 X116.624 Y97.585 E0.03935
G1 X116.624 Y98.120 E0.01550
G1 X118.120 Y96.624 E0.06127
G1 X118.656 Y96.624 E0.01550
G1 X116.624 Y98.656 E0.08319
G1 X116.624 Y99.191 E0.01550
G1 X119.191 Y96.624 E0.10511
G1 X119.726 Y96.624 E0.01550
G1 X116.624 Y99.726 E0.12703
G1 X116.624 Y100.262 E0.01550
G1 X120.262 Y96.624 E0.14895
G1 X120.797 Y96.624 E0.01550
G1 X116.624 Y100.797 E0.17087
G1 X116.624 Y101.332 E0.01550
G1 X121.332 Y96.624 E0.19279
G1 X121.867 Y96.624 E0.01550
G1 X116.624 Y101.867 E0.21470
G1 X116.624 Y102.403 E0.01550
G1 X122.403 Y96.624 E0.23662
G1 X122.938 Y96.624 E0.01550
G1 X116.624 Y102.938 E0.25854
G1 X116.624 Y103.473 E0.01550
G1 X123.473 Y96.624 E0.28046
G1 X124.008 Y96.624 E0.01550
G1 X116.624 Y104.008 E0.30238
G1 X116.624 Y104.544 E0.01550
G1 X124.544 Y96.624 E0.32430
G1 X125.079 Y96.624 E0.01550
G1 X116.624 Y105.079 E0.34622
G1 X116.624 Y105.614 E0.01550
G1 X125.614 Y96.624 E0.36814
G1 X126.150 Y96.624 E0.01550
G1 X116.624 Y106.150 E0.39005
G1 X116.624 Y106.685 E0.01550
G1 X126.685 Y96.624 E0.41197
G1 X127.220 Y96.624 E0.01550
G1 X116.624 Y107.220 E0.43389
G1 X116.624 Y107.755 E0.01550
G1 X127.755 Y96.624 E0.45581
G1 X128.291 Y96.624 E0.01550
G1 X116.624 Y108.291 E0.47773
G1 X116.624 Y108.826 E0.01550
G1 X128.826 Y96.624 E0.49965
G1 X129.361 Y96.624 E0.01550
G1 X116.624 Y109.361 E0.52157
G1 X116.624 Y109.897 E0.01550
G1 X129.897 Y96.624 E0.54349
G1 X130.432 Y96.624 E0.01550
G1 X116.624 Y110.432 E0.56540
G1 X116.624 Y110.967 E0.01550
G1 X130.967 Y96.624 E0.58732
G1 X131.502 Y96.624 E0.01550
G1 X116.624 Y111.502 E0.60924
G1 X116.624 Y112.038 E0.01550
G1 X132.038 Y96.624 E0.63116
G1 X132.573 Y96.624 E0.01550
G1 X116.624 Y112.573 E0.65308
G1 X116.624 Y113.108 E0.01550
G1 X133.108 Y96.624 E0.67500
G1 X133.376 Y96.624 E0.00775
G1 X133.376 Y96.892 E0.00775
G1 X116.892 Y113.376 E0.67500
G1 X117.427 Y113.376 E0.01550
G1 X133.376 Y97.427 E0.65308
G1 X133.376 Y97.962 E0.01550
G1 X117.962 Y113.376 E0.63117
G1 X118.497 Y113.376 E0.01550
G1 X133.376 Y98.497 E0.60925
G1 X133.376 Y99.033 E0.01550
G1 X119.033 Y113.376 E0.58733
G1 X119.568 Y113.376 E0.01550
G1 X133.376 Y99.568 E0.56541
G1 X133.376 Y100.103 E0.01550
G1 X120.103 Y113.376 E0.54349
G1 X120.639 Y113.376 E0.01550
G1 X133.376 Y100.639 E0.52157
G1 X133.376 Y101.174 E0.01550
G1 X121.174 Y113.376 E0.49965
G1 X121.709 Y113.376 E0.01550
G1 X133.376 Y101.709 E0.47773
G1 X133.376 Y102.244 E0.01550
G1 X122.244 Y113.376 E0.45582
G1 X122.780 Y113.376 E0.01550
G1 X133.376 Y102.780 E0.43390
G1 X133.376 Y103.315 E0.01550
G1 X123.315 Y113.376 E0.41198
G1 X123.850 Y113.376 E0.01550
G1 X133.376 Y103.850 E0.39006
G1 X133.376 Y104.386 E0.01550
G1 X124.386 Y113.376 E0.36814
G1 X124.921 Y113.376 E0.01550
G1 X133.376 Y104.921 E0.34622
G1 X133.376 Y105.456 E0.01550
G1 X125.456 Y113.376 E0.32430
G1 X125.991 Y113.376 E0.01550
G1 X133.376 Y105.991 E0.30238
G1 X133.376 Y106.527 E0.01550
G1 X126.527 Y113.376 E0.28047
G1 X127.062 Y113.376 E0.01550
G1 X133.376 Y107.062 E0.25855
G1 X133.376 Y107.597 E0.01550
G1 X127.597 Y113.376 E0.23663
G1 X128.133 Y113.376 E0.01550
G1 X133.376 Y108.133 E0.21471
G1 X133.376 Y108.668 E0.01550
G1 X128.668 Y113.376 E0.19279
G1 X129.203 Y113.376 E0.01550
G1 X133.376 Y109.203 E0.17087
G1 X133.376 Y109.738 E0.01550
G1 X129.738 Y113.376 E0.14895
G1 X130.274 Y113.376 E0.01550
G1 X133.376 Y110.274 E0.12703
G1 X133.376 Y110.809 E0.01550
G1 X130.809 Y113.376 E0.10512
G1 X131.344 Y113.376 E0.01550
G1 X133.376 Y111.344 E0.08320
G1 X133.376 Y111.879 E0.01550
G1 X131.879 Y113.376 E0.06128
G1 X132.415 Y113.376 E0.01550
G1 X133.376 Y112.415 E0.03936
G1 X133.376 Y112.950 E0.01550
G1 X132.780 Y113.546 E0.02439
;BEFORE_LAYER_CHANGE





G1 E-0.04000 F1800.00000
G1 F5760
G1 X133.376 Y112.950 E-0.25006
G1 X133.376 Y112.640 E-0.09194
G1 E-0.01800 F1800.00000
G1 Z0.600 F7200.000
;AFTER_LAYER_CHANGE

G1 X116.341 Y96.341
G1 E0.40000 F1800.00000
M204 S600
G1 F3380
G1 X133.659 Y96.341 E0.49954
G1 X133.659 Y113.659 E0.49954
G1 X116.341 Y113.659 E0.49954
G1 X116.341 Y96.401 E0.49781
M204 S1000
G1 X115.964 Y95.964 F7200.000
M204 S600
G1 F3380
G1 X134.036 Y95.964 E0.52130
G1 X134.036 Y114.036 E0.52130
G1 X115.964 Y114.036 E0.52130
G1 X115.964 Y96.024 E0.51956
M204 S1000
G1 X115.587 Y95.587 F7200.000
M204 S600
G1 F3380
G1 X134.413 Y95.587 E0.54305
G1 X134.413 Y114.413 E0.54305
G1 X115.587 Y114.413 E0.54305
G1 X115.587 Y95.647 E0.54132
M204 S1000
G1 X115.210 Y95.210 F7200.000
M204 S600
G1 F2400
G1 X134.790 Y95.210 E0.56480
G1 X134.790 Y114.790 E0.56480
G1 X115.210 Y114.790 E0.56480
G1 X115.210 Y95.270 E0.56307
M204 S1000
G1 X115.596 Y95.314 F7200.000
G1 E-0.04000 F1800.00000
G1 F5760
G1 X116.362 Y95.266 E-0.34200
G1 E-0.01800 F1800.00000
G1 X117.220 Y113.546 F7200.000
G1 E0.40000 F1800.00000
G1 F3380
G1 X116.624 Y112.950 E0.02438
G1 X116.624 Y112.415 E0.01550
G1 X117.585 Y113.376 E0.03935
G1 X118.120 Y113.376 E0.01550
G1 X116.624 Y111.880 E0.06127
G1 X116.624 Y111.344 E0.01550
G1 X118.656 Y113.376 E0.08319
G1 X119.191 Y113.376 E0.01550
G1 X116.624 Y110.809 E0.10511
G1 X116.624 Y110.274 E0.01550
G1 X119.726 Y113.376 E0.12703
G1 X120.262 Y113.376 E0.01550
G1 X116.624 Y109.738 E0.14895
G1 X116.624 Y109.203 E0.01550
G1 X120.797 Y113.376 E0.17087
G1 X121.332 Y113.376 E0.01550
G1 X116.624 Y108.668 E0.19279
G1 X116.624 Y108.133 E0.01550
G1 X121.867 Y113.376 E0.21470
G1 X122.403 Y113.376 E0.01550
G1 X116.624 Y107.597 E0.23662
G1 X116.624 Y107.062 E0.01550
G1 X122.938 Y113.376 E0.25854
G1 X123.473 Y113.376 E0.01550
G1 X116.624 Y106.527 E0.28046
G1 X116.624 Y105.992 E0.01550
G1 X124.008 Y113.376 E0.30238
G1 X124.544 Y113.376 E0.01550
G1 X116.624 Y105.456 E0.32430
G1 X116.624 Y104.921 E0.01550
G1 X125.079 Y113.376 E0.34622
G1 X125.614 Y113.376 E0.01550
G1 X116.624 Y104.386 E0.36814
G1 X116.624 Y103.850 E0.01550
G1 X126.150 Y113.376 E0.39005
G1 X126.685 Y113.376 E0.01550
G1 X116.624 Y103.315 E0.41197
G1 X116.624 Y102.780 E0.01550
G1 X127.220 Y113.376 E0.43389
G1 X127.755 Y113.376 E0.01550
G1 X116.624 Y102.245 E0.45581
G1 X116.624 Y101.709 E0.01550
G1 X128.291 Y113.376 E0.47773
G1 X128.826 Y113.376 E0.01550
G1 X116.624 Y101.174 E0.49965
G1 X116.624 Y100.639 E0.01550
G1 X129.361 Y113.376 E0.52157
G1 X129.897 Y113.376 E0.01550
G1 X116.624 Y100.103 E0.54349
G1 X116.624 Y99.568 E0.01550
G1 X130.432 Y113.376 E0.56540
G1 X130.967 Y113.376 E0.01550
G1 X116.624 Y99.033 E0.58732
G1 X116.624 Y98.498 E0.01550
G1 X131.502 Y113.376 E0.60924
G1 X132.038 Y113.376 E0.01550
G1 X116.624 Y97.962 E0.63116
G1 X116.624 Y97.427 E0.01550
G1 X132.573 Y113.376 E0.65308
G1 X133.108 Y113.376 E0.01550
G1 X116.624 Y96.892 E0.67500
G1 X116.624 Y96.624 E0.00775
G1 X116.892 Y96.624 E0.00775
G1 X133.376 Y113.108 E0.67500
G1 X133.376 Y112.573 E0.01550
G1 X117.427 Y96.624 E0.65308
G1 X117.962 Y96.624 E0.01550
G1 X133.376 Y112.038 E0.63117
G1 X133.376 Y111.503 E0.01550
G1 X118.497 Y96.624 E0.60925
G1 X119.033 Y96.624 E0.01550
G1 X133.376 Y110.967 E0.58733
G1 X133.376 Y110.432 E0.01550
G1 X119.568 Y96.624 E0.56541
G1 X120.103 Y96.624 E0.01550
G1 X133.376 Y109.897 E0.54349
G1 X133.376 Y109.361 E0.01550
G1 X120.639 Y96.624 E0.52157
G1 X121.174 Y96.624 E0.01550
G1 X133.376 Y108.826 E0.49965
G1 X133.376 Y108.291 E0.01550
G1 X121.709 Y96.624 E0.47773
G1 X122.244 Y96.624 E0.01550
G1 X133.376 Y107.756 E0.45582
G1 X133.376 Y107.220 E0.01550
G1 X122.780 Y96.624 E0.43390
G1 X123.315 Y96.624 E0.01550
G1 X133.376 Y106.685 E0.41198
G1 X133.376 Y106.150 E0.01550
G1 X123.850 Y96.624 E0.39006
G1 X124.386 Y96.624 E0.01550
G1 X133.376 Y105.614 E0.36814
G1 X133.376 Y105.079 E0.01550
G1 X124.921 Y96.624 E0.34622
G1 X125.456 Y96.624 E0.01550
G1 X133.376 Y104.544 E0.32430
G1 X133.376 Y104.009 E0.01550
G1 X125.991 Y96.624 E0.30238
G1 X126.527 Y96.624 E0.01550
G1 X133.376 Y103.473 E0.28047
G1 X133.376 Y102.938 E0.01550
G1 X127.062 Y96.624 E0.25855
G1 X127.597 Y96.624 E0.01550
G1 X133.376 Y102.403 E0.23663
G1 X133.376 Y101.867 E0.01550
G1 X128.133 Y96.624 E0.21471
G1 X128.668 Y96.624 E0.01550
G1 X133.376 Y101.332 E0.19279
G1 X133.376 Y100.797 E0.01550
G1 X129.203 Y96.624 E0.17087
G1 X129.738 Y96.624 E0.01550
G1 X133.376 Y100.262 E0.14895
G1 X133.376 Y99.726 E0.01550
G1 X130.274 Y96.624 E0.12703
G1 X130.809 Y96.624 E0.01550
G1 X133.376 Y99.191 E0.10512
G1 X133.376 Y98.656 E0.01550
G1 X131.344 Y96.624 E0.08320
G1 X131.879 Y96.624 E0.01550
G1 X133.376 Y98.121 E0.06128
G1 X133.376 Y97.585 E0.01550
G1 X132.415 Y96.624 E0.03936
G1 X132.950 Y96.624 E0.01550
G1 X133.546 Y97.220 E0.02439
M106 S150.45
;BEFORE_LAYER_CHANGE





G1 E-0.04000 F1800.00000
G1 F5760
G1 X132.950 Y96.624 E-0.25006
G1 X132.640 Y96.624 E-0.09194
G1 E-0.01800 F1800.00000
G1 Z0.800 F7200.000
;AFTER_LAYER_CHANGE

G1 X116.341 Y96.341
G1 E0.40000 F1800.00000
M204 S600
G1 F3343
G1 X133.659 Y96.341 E0.49954
G1 X133.659 Y113.659 E0.49954
G1 X116.341 Y113.659 E0.49954
G1 X116.341 Y96.401 E0.49781
M204 S1000
G1 X115.964 Y95.964 F7200.000
M204 S600
G1 F3343
G1 X134.036 Y95.964 E0.52130
G1 X134.036 Y114.036 E0.52130
G1 X115.964 Y114.036 E0.52130
G1 X115.964 Y96.024 E0.51956
M204 S1000
